X:1
T:Études-Tableaux, Op. 33
T:Études-Tableaux, Op. 33
T:No. 8
T:Sergei Rachmaninoff
C:Sergei Rachmaninoff
%%score { ( 1 3 5 ) | ( 2 4 ) }
L:1/8
Q:1/4=72
M:4/4
K:Bb
V:1 treble nm="Piano" snm="Pno."
V:3 treble 
V:5 treble 
V:2 treble 
V:4 treble 
V:1
!pp!"^Moderato" z8 | z2!mf!"_molto legato e cantabile" (!tenuto!B2 !tenuto!B2 !tenuto!B2) | %2
"^m. d." B2"_m. s." _A2"_dim.""^m. d." G2"_m. s." ^F2 | %3
!p!"^m. d." G4[K:bass] z/ (D,/G,/B,/ D/G,/D,/) z/ | %4
!p! z/ (D,/G,/B,/ D/G,/[I:staff +1]D,/G,,/)[I:staff -1] z/[I:staff +1] (D,/G,/[I:staff -1][K:treble]D/ G/D/[I:staff +1]G,/D,/) | %5
[I:staff -1] z2 (!tenuto!B2 !tenuto!B2 AB) |!<(! (B2!<)!!>(! c4 d2)!>)! | %7
!mf! (!4!B4-"_dim." B_A G^F) | G4!mf! (!tenuto![dgb]2- [dgb]/!>(![cfa]/[Beg]/[Ad-f]/!>)! | %9
!p! [Bdg]4)[K:bass] z/ (D,/G,/B,/ D/G,/D,/) z/ | %10
 z/ (D,/G,/B,/ D/G,/[I:staff +1]D,/G,,/)[I:staff -1][K:treble]!mf! (!arpeggio!!tenuto![Aa]4 | %11
 !tenuto![_A_a]2 g4 ^f2 | %12
!p! [GBg]4)!mf!!8va(! ([d'g'b']2- [d'g'b']/!>(![c'f'a']/[be'g']/[ad'-f']/!>)! | %13
!p! [bd'g']4)!8va)![K:bass]!mf! z/ (D,/G,/B,/ D/G,/D,/) z/ | %14
 z/"_cresc." (D,/G,/=B,/ D/B,/G,/D,/) z/ (F,/G,/B,/ G/B,/G,/F,/) | %15
[K:treble] z/!f! E,/(3_A,/E/-_A/- [EA]4 [Ec]2 |!>(! ([DEB]2 [CE_A]4 [B,=EG]2!>)! | %17
!pp! .[B,DG]2) z2 [A,D^F]2 z2 | z4!mf! (!tenuto![dgb]2- [dgb]/[cfa]/[Beg]/[Adf]/) | %19
 (!tenuto![Beg]2- [Beg]/[Adf]/[Gce]/[FBd]/) (!tenuto![Gce]2- [Gce]/[FBd]/[EAc]/[DGB]/) | %20
[M:2/4]"_dim." [E_Ac]2- [EAc]/[DGB]/[CFA]/[B,EG]/ | %21
[M:4/4]!pp! (!tenuto![A,D^F]4-!<(! [A,DF]/[B,=EG]/[CFA]/[DGB]/!<)!!>(! [_E_Ac]/[DGB]/[C=FA]/[B,EG]/)!>)! | %22
 (!tenuto![A,D^F]4-"^poco rit." [A,DF]/[B,=EG]/[CFA]/[DGB]/ [_E_Ac]/"_m. s."[Bd]/[Ace]/[^cf]/ | %23
"_m. s." [d^f]2) (!tenuto!^F2- F/G/A/B/ c/B/A/G/ | %24
"_cresc." ^F2- F/4)(G/4A/4B/4c/4B/4A/4G/4"_m. s." !>!F2- F/4) (G/4A/4B/4c/4B/4A/4!f!"^veloce"!<(!G/4{cBAGcBAGcBAGcBAG)}!<)! | %25
!ff!"_m. s." z/4 (A/4B/4c/4d) z/4 (G/4B/4c/4d) z/4 (^F/4A/4c/4d) z/4 (_E/4F/4B/4e) | %26
 z/4 (E/4G/4c/4g) z/4 (C/4E/4G/4c) z/4 (C/4E/4=A/4e) z/4 (A,/4C/4D/4A) | %27
 z/4 (_A,/4C/4^F/4c)[I:staff +1] (D,/4E,/4^F,/4[I:staff -1]G,/4C/4E/4G,/4E,/4)[I:staff +1] (B,,/4E,/4=B,/4[I:staff -1]G,/4C/4G/4E/4G,/4)[I:staff +1] (_A,,/4C,/4F,/4[I:staff -1][K:bass]E,/4G,/4C/4E,/4C,/4) | %28
[I:staff +1] (^F,,/4C,/4[I:staff -1]E,/4_A,/4[I:staff +1]=A,/4[I:staff -1]E/4=B,/4C/4)[I:staff +1] (=F,,/4C,/4[I:staff -1]E,/4G,/4[I:staff +1]_A,/4[I:staff -1]E/4B,/4C/4)[I:staff +1] (E,,/4G,,/4"^rit."[I:staff -1]=A,,/4_B,,/4G,/4E,/4=B,,/4C,/4)[I:staff +1] (D,,/4G,,/4[I:staff -1]_B,,/4=B,,/4^F,/4G,/4B,,/4C,/4) | %29
!ff! x/4[I:staff +1] ([^C,,,^C,,]/4^G,,/4^C,/4=E,/4[I:staff -1][K:treble]!2!^G,/4!5!=E/4!3!^B,/4 !4!^C/4!1!E/4^G/4!5!=e/4!3!^B/4!4!^c/4!1!e/4^g/4 !5!=e'2) z2 | %30
 z2[K:bass]!mf!!>(! (^G,2- G, A,2 _B,)!>)! | %31
!pp! x[K:treble] (=E/4G/4B/4^c/4=e/4g/4!8va(!b/4^c'/4=e'/4g'/4b'/4^c''/4 =e''2)!8va)! z2 | %32
 z2!f! b4 (!tenuto!a2- |!>(! a2 _a6!>)! |!p! .[GBdg]2)!pp! .[^F,C^F]2 z4 | %35
!pp!"^Tempo I" x4[K:bass] z/ (D,/G,/B,/ D/G,/D,/) z/ | %36
 z/ (D,/G,/B,/ D/G,/[I:staff +1]D,/G,,/)[I:staff -1][K:treble] d2- d/c/B/A/ | %37
 !tenuto![_A_a]2 g4 ^f2 | %38
!p! [GBg]4!mf!!8va(! (!tenuto![d'g'b']2- [d'g'b']/!>(![c'f'a']/[be'g']/[ad'-f']/!>)! | %39
!p! [bd'g']4)!8va)!!mf! (!tenuto![dgb]2- [dgb]/!>(![cfa]/[Beg]/[Ad-f]/!>)! | %40
!p! [Bdg]3/2)(3(f/4e/4d/4"_cresc." !>!e3/2)(3(d/4c/4B/4"^poco accelerando" !>!c3/2)(3(B/4_A/4G/4 !>!A3/2)(3(G/4F/4E/4 | %41
 !>!F3/2)(3(E/4D/4C/4 !>!D3/2)(3(C/4B,/4_A,/4 !>!C3/2)(3(B,/4=A,/4G,/4 !>!B,3/2)(3(A,/4G,/4^F,/4 | %42
 x2 x3/4 G,/4)!<(!(A,/4B,/4C/4D/4E/4^F/4G/4A/4B/4c/4d/4e/4^f/4g/4a/4b/4c'/4d'/4e'/4^f'/4!<)! | %43
 .g'2) z2[K:bass]!pp! !tenuto![D,G,B,]4 | !tenuto!!fermata![D,G,B,]8 |] %45
V:2
 z/ (D/G,/D/ G/D/G/B/) z/ (D/G,/D/ G/D/G/B/) | z/ (D/G,/D/ G/D/G/d/) z/ (D/G,/D/ d/G/d/g/) | %2
 z/ (C/E/G/) z/"^m. d." (e/E/C/) z/ (D,/C/[I:staff -1]D/)[I:staff +1] z/[I:staff -1] (d/D/[I:staff +1][K:bass]C/) | %3
 z/ (B,/G,/[I:staff -1]B,/ D/G,/[I:staff +1]D,/G,,/)!mf! (!tenuto!B,,2-!>(! B,,/A,,/G,,/^F,,/!>)! | %4
 G,,8) |[K:treble] z/ (D/G,/D/ G/D/G/d/) z/ (D/B,/D/ G/D/G/d/) | %6
 z/ (G/D/G/ d/G/d/g/) z/ (F/D/F/ B/F/B/f/) | %7
 z/ (D3/2 _D2)[K:bass] (_A,,/E,/B,/=B,/) (C/D,/^C/=D/) | %8
 z/ (B,/G,/[I:staff -1]B,/ D/G,/[I:staff +1]D,/G,,/) (E,,/B,,/G,/B,/ D/F/G/) z/ | %9
 z/ (G,,/D,/G,/[I:staff -1] D/G,/[I:staff +1]D,/G,,/)!mf! (!tenuto!B,,2-!>(! B,,/A,,/G,,/^F,,/!>)! | %10
 G,,4) z/ (C,,/G,/E/ A/C/E/G,/) | z/ (E,,/_A,/C/ _D/G,/D/E,/) z/ (D,,/D,/C/ ^F/=A,/C/D,/) | %12
 z/ ([G,,D,]/B,/[I:staff -1]G/ d/G/[I:staff +1]D/G,/)[K:treble] (E/G/B/c/ d/f/g/) z/ | %13
 z/ ([G,D]/G/B/[I:staff -1] d/G/[I:staff +1][K:bass]D/G,/) (B,,2-!>(! B,,/A,,/G,,/!>)!^F,,/ | %14
 G,,3) (3(F,,/E,,/D,,/ !>!E,,3) (3(D,,/C,,/=B,,,/ | !>!C,,8- | C,,6 ^C,,2 | D,,2) z2 [D,,D,]2 z2 | %18
 z/ ([G,,D,]/G,/[I:staff -1]B,/ D/G,/[I:staff +1]D,/G,,/) z/ ([E,,B,,]/G,/B,/ D/F/G/) z/ | %19
 z/ (C,,/C,/G,/ B,/D/E/) z/ z/ (A,,,/A,,/E,/ G,/B,/C/) z/ | %20
[M:2/4] z/ (F,,,/F,,/C,/ E,/G,/_A,/) z/ | %21
[M:4/4] z (D,,,/D,,/ A,,/D,/^F,/B,/ A,) z !tenuto![C,_A,]2 | %22
 z (D,,,/D,,/ A,,/D,/^F,/B,/ A,) z !tenuto!_A,2 | z/ (D,,,/D,,/A,,/ D,/^F,/C/E/ D4- | D8) | x8 | %26
 x8 | (!>!E,^F,/4G,/4=B,/4C/4) !>!D,!>!C, !>!_B,,2 !>!_A,,!>!G,, | %28
 !>!^F,,2 !>!=F,,2 !>!E,,2 !>!D,,2 | !>![^C,,^G,,]8 | z2 (^G,,2- G,, A,,2 G,,) | %31
 z({=G,,B,,^C,=E,} G,/4B,/4[K:treble]^C/4=E/4G/4B/4^c/4=e/4g/4b/4^c'/4=e'/4 g'2) z2 | %32
 z2 z4 ([^C-A]2 | !tenuto![CB]8) |[K:bass] .[D,G,B,D]2 .[D,,A,,D,]2 z4 | %35
 z/ (G,/D/[I:staff -1]G/ d/G/[I:staff +1]D/G,/)!mf!!>(! (!tenuto!B,,2- B,,/A,,/G,,/^F,,/!>)! | %36
!p! G,,4) z/ (C,,/G,/E/ A/C/E/G,/) | z/ (E,,/_A,/C/ _D/G,/D/E,/) z/ (=D,,/=D,/C/ ^F/=A,/C/D,/) | %38
 z/ ([G,,D,]/B,/[I:staff -1]G/ d/G/[I:staff +1]D/G,/)[K:treble] (E/G/B/c/ d/f/g/) z/ | %39
 z/ ([G,D]/G/B/[I:staff -1] d/G/[I:staff +1][K:bass]D/G,/) (E,,/B,,/G,/B,/ D/F/G/) z/ | %40
 (G,,,/G,,/D,/B,/) (G/B,/D,/G,,/) (E/G,/D,/) z/ (C/G,/D,/G,,/) | %41
(x/D,/G,,/^F,/)(x/D,/G,,/=E,/)(x/G,,/D,,/D,/) (!>!^C,/G,,/D,,/(3A,,,/4G,,,/4^F,,,/4 | %42
!ff! x2 x3/4 G,,,/4)(A,,,/4B,,,/4C,,/4D,,/4E,,/4^F,,/4G,,/4A,,/4B,,/4C,/4D,/4E,/4^F,/4G,/4A,/4B,/4C/4D/4E/4^F/4 | %43
 .G2) z2 !tenuto!G,,,4 | !tenuto!!fermata!G,,,8 |] %45
V:3
 x8 | x8 | x8 | x4[K:bass] x4 | x11/2[K:treble] x5/2 | x8 | x8 | %7
 x/[I:staff +1] (D/E/G/[I:staff -1] !5!e/G/E/_D/) C/E/_A/e/ G/=D/^F/d/ | x8 | x4[K:bass] x4 | %10
 x4[K:treble] d2- d/c/B/A/ | (!tenuto!c2- c/B/=A/G/)"_dim." (!tenuto![GB-]2 B/A/G/^F/) | %12
 x4!8va(! x4 | x4!8va)![K:bass] x4 | x8 |[K:treble] x2 !tenuto!e4 x2 | x8 | x8 | x8 | x8 | %20
[M:2/4] x4 |[M:4/4] x8 | x6 x/ [D=F]/[CE]/[B,^CG]/ | [A,D^F]2 x6 | x8 | %25
 (!>!^F-F/4G/4A/4B/4) (!>!=E-E/4F/4G/4B/4) (!>!DF/4G/4A/4B/4) (!>!C-C/4_E/4F/4=B/4) | %26
 (!>!_B,D/4E/4^F/4G/4) (!>!=A,-A,/4C/4E/4_A/4) (!>!G,=B,/4C/4D/4E/4)[I:staff +1] (!>!^F,-F,/4E/4C/4A,/4) | %27
 x27/4[I:staff -1][K:bass] x5/4 | x8 | !>![^C,=E,^G,]8[K:treble] | x2[K:bass] =E,6 | %31
 [=E,B,]8[K:treble] | x6 =e2- | e6 _e2 | x8 | x4[K:bass] x4 | x4[K:treble] !tenuto![Aa]4 | %37
 !tenuto!c2- c/B/=A/G/-"_dim." !tenuto!G2 x2 | x4!8va(! x4 | x4!8va)! x4 | x8 | x8 | !>!G,6 x2 | %43
 x4[K:bass] x4 | x8 |] %45
V:4
 x8 | x8 | x15/2[K:bass] x/ | x8 | x8 |[K:treble] x8 | x8 | x4[K:bass] x4 | x8 | x8 | x8 | %11
 x2 G2 x2 ^F2 | x4[K:treble] E4 | x3[K:bass] x5 | x8 | x8 | x8 | x8 | x8 | x8 |[M:2/4] x4 | %21
[M:4/4] x8 | x8 | x8 | x8 | x8 | x8 | x8 | x8 | z x x2 x4 | x2 ^C,,6 | %31
 !arpeggio![^C,,,^C,,]8[K:treble] | x8 | x8 |[K:bass] x8 | x8 | x8 | x2 G2 x2 ^F2 | %38
 x4[K:treble] E4 | x3[K:bass] x5 | x2 !>!G2 !>!E2 !>!C2 | %41
 !>!_A,>!>!^F, !>!=F,>!>!=E, !>!_E,>!>!D, x2 | !>!G,,,6 x2 | x8 | x8 |] %45
V:5
 x8 | x8 | x8 | x4[K:bass] x4 | x11/2[K:treble] x5/2 | x8 | x8 | x8 | x8 | x4[K:bass] x4 | %10
 x4[K:treble] x4 | x8 | x4!8va(! x4 | x4!8va)![K:bass] x4 | x8 |[K:treble] x8 | x8 | x8 | x8 | x8 | %20
[M:2/4] x4 |[M:4/4] x8 | x8 | x8 | x8 | x8 | x8 | x27/4[K:bass] x5/4 | x8 | x5/4[K:treble] x27/4 | %30
 x2[K:bass] x6 | x[K:treble] x3/2!8va(! x7/2!8va)! x2 | x8 | x8 | x8 | x4[K:bass] x4 | %36
 x4[K:treble] x4 | x4 !tenuto!B2- B/A/G/^F/ | x4!8va(! x4 | x4!8va)! x4 | x8 | x8 | x8 | %43
 x4[K:bass] x4 | x8 |] %45

